X:36
T:Locheil's March
C:arr. Carlo Minasi
M:6/8
L:1/8
B:Chappell's One Hundred Scotch Melodies
B:Arranged for the Concertina by Carlo Minasi
Q:"Spiritoso  "3/8=100
Z:Peter Dunk 2012
K:F
!mf!(c>A)A (d>ef)|(c>A)A A2 F|\
(c>A)A (d>ef)|(c>AF) L([G2B,2] [FA,])|
[cA]>[AF][AF] [dB]>[BG][BG]|[cA]>AA [A2F2] F|\
[GE][GE][AF] [BG]>[cA][dB]|[cA]AF L([G2B,2] [FA,])||
!f!([gcA]>c)c [fdB]>dd|[gcA]>cc A2 F|\
[GE]([GE][AF]) ([BG]>[cA][dB])|([cA]AF) L([G2B,2] [FA,])||

